bernoullicharts/2014_lin_x_4_0_bound.svg

<?xml version="1.0" encoding="utf-8" standalone="no"?>
<!DOCTYPE svg PUBLIC "-//W3C//DTD SVG 1.1//EN"
  "http://www.w3.org/Graphics/SVG/1.1/DTD/svg11.dtd">
<!-- Created with matplotlib (https://matplotlib.org/) -->
<svg height="345.6pt" version="1.1" viewBox="0 0 460.8 345.6" width="460.8pt" xmlns="http://www.w3.org/2000/svg" xmlns:xlink="http://www.w3.org/1999/xlink">
 <defs>
  <style type="text/css">
*{stroke-linecap:butt;stroke-linejoin:round;}
  </style>
 </defs>
 <g id="figure_1">
  <g id="patch_1">
   <path d="M 0 345.6 
L 460.8 345.6 
L 460.8 0 
L 0 0 
z
" style="fill:#ffffff;"/>
  </g>
  <g id="axes_1">
   <g id="patch_2">
    <path d="M 57.6 307.584 
L 414.72 307.584 
L 414.72 41.472 
L 57.6 41.472 
z
" style="fill:#ffffff;"/>
   </g>
   <g id="matplotlib.axis_1">
    <g id="xtick_1">
     <g id="line2d_1">
      <defs>
       <path d="M 0 0 
L 0 3.5 
" id="m1662c79aaa" style="stroke:#000000;stroke-width:0.8;"/>
      </defs>
      <g>
       <use style="stroke:#000000;stroke-width:0.8;" x="73.69878" xlink:href="#m1662c79aaa" y="307.584"/>
      </g>
     </g>
     <g id="text_1">
      <text style="font-family:DejaVu Sans;font-size:10px;font-style:normal;font-weight:normal;text-anchor:middle;" transform="rotate(-0, 73.69878, 322.182437)" x="73.69878" y="322.182437">0.00</text>
     </g>
    </g>
    <g id="xtick_2">
     <g id="line2d_2">
      <g>
       <use style="stroke:#000000;stroke-width:0.8;" x="140.672175" xlink:href="#m1662c79aaa" y="307.584"/>
      </g>
     </g>
     <g id="text_2">
      <text style="font-family:DejaVu Sans;font-size:10px;font-style:normal;font-weight:normal;text-anchor:middle;" transform="rotate(-0, 140.672175, 322.182437)" x="140.672175" y="322.182437">0.05</text>
     </g>
    </g>
    <g id="xtick_3">
     <g id="line2d_3">
      <g>
       <use style="stroke:#000000;stroke-width:0.8;" x="207.64557" xlink:href="#m1662c79aaa" y="307.584"/>
      </g>
     </g>
     <g id="text_3">
      <text style="font-family:DejaVu Sans;font-size:10px;font-style:normal;font-weight:normal;text-anchor:middle;" transform="rotate(-0, 207.64557, 322.182437)" x="207.64557" y="322.182437">0.10</text>
     </g>
    </g>
    <g id="xtick_4">
     <g id="line2d_4">
      <g>
       <use style="stroke:#000000;stroke-width:0.8;" x="274.618965" xlink:href="#m1662c79aaa" y="307.584"/>
      </g>
     </g>
     <g id="text_4">
      <text style="font-family:DejaVu Sans;font-size:10px;font-style:normal;font-weight:normal;text-anchor:middle;" transform="rotate(-0, 274.618965, 322.182437)" x="274.618965" y="322.182437">0.15</text>
     </g>
    </g>
    <g id="xtick_5">
     <g id="line2d_5">
      <g>
       <use style="stroke:#000000;stroke-width:0.8;" x="341.592359" xlink:href="#m1662c79aaa" y="307.584"/>
      </g>
     </g>
     <g id="text_5">
      <text style="font-family:DejaVu Sans;font-size:10px;font-style:normal;font-weight:normal;text-anchor:middle;" transform="rotate(-0, 341.592359, 322.182437)" x="341.592359" y="322.182437">0.20</text>
     </g>
    </g>
    <g id="xtick_6">
     <g id="line2d_6">
      <g>
       <use style="stroke:#000000;stroke-width:0.8;" x="408.565754" xlink:href="#m1662c79aaa" y="307.584"/>
      </g>
     </g>
     <g id="text_6">
      <text style="font-family:DejaVu Sans;font-size:10px;font-style:normal;font-weight:normal;text-anchor:middle;" transform="rotate(-0, 408.565754, 322.182437)" x="408.565754" y="322.182437">0.25</text>
     </g>
    </g>
    <g id="text_7">
     <text style="font-family:DejaVu Sans;font-size:10px;font-style:normal;font-weight:normal;text-anchor:middle;" transform="rotate(-0, 236.16, 335.860562)" x="236.16" y="335.860562">Input Coin's Heads Probability (λ)</text>
    </g>
   </g>
   <g id="matplotlib.axis_2">
    <g id="ytick_1">
     <g id="line2d_7">
      <defs>
       <path d="M 0 0 
L -3.5 0 
" id="m704ef00af5" style="stroke:#000000;stroke-width:0.8;"/>
      </defs>
      <g>
       <use style="stroke:#000000;stroke-width:0.8;" x="57.6" xlink:href="#m704ef00af5" y="303.135747"/>
      </g>
     </g>
     <g id="text_8">
      <text style="font-family:DejaVu Sans;font-size:10px;font-style:normal;font-weight:normal;text-anchor:end;" transform="rotate(-0, 50.6, 306.934966)" x="50.6" y="306.934966">0</text>
     </g>
    </g>
    <g id="ytick_2">
     <g id="line2d_8">
      <g>
       <use style="stroke:#000000;stroke-width:0.8;" x="57.6" xlink:href="#m704ef00af5" y="263.13707"/>
      </g>
     </g>
     <g id="text_9">
      <text style="font-family:DejaVu Sans;font-size:10px;font-style:normal;font-weight:normal;text-anchor:end;" transform="rotate(-0, 50.6, 266.936289)" x="50.6" y="266.936289">20</text>
     </g>
    </g>
    <g id="ytick_3">
     <g id="line2d_9">
      <g>
       <use style="stroke:#000000;stroke-width:0.8;" x="57.6" xlink:href="#m704ef00af5" y="223.138393"/>
      </g>
     </g>
     <g id="text_10">
      <text style="font-family:DejaVu Sans;font-size:10px;font-style:normal;font-weight:normal;text-anchor:end;" transform="rotate(-0, 50.6, 226.937611)" x="50.6" y="226.937611">40</text>
     </g>
    </g>
    <g id="ytick_4">
     <g id="line2d_10">
      <g>
       <use style="stroke:#000000;stroke-width:0.8;" x="57.6" xlink:href="#m704ef00af5" y="183.139715"/>
      </g>
     </g>
     <g id="text_11">
      <text style="font-family:DejaVu Sans;font-size:10px;font-style:normal;font-weight:normal;text-anchor:end;" transform="rotate(-0, 50.6, 186.938934)" x="50.6" y="186.938934">60</text>
     </g>
    </g>
    <g id="ytick_5">
     <g id="line2d_11">
      <g>
       <use style="stroke:#000000;stroke-width:0.8;" x="57.6" xlink:href="#m704ef00af5" y="143.141038"/>
      </g>
     </g>
     <g id="text_12">
      <text style="font-family:DejaVu Sans;font-size:10px;font-style:normal;font-weight:normal;text-anchor:end;" transform="rotate(-0, 50.6, 146.940257)" x="50.6" y="146.940257">80</text>
     </g>
    </g>
    <g id="ytick_6">
     <g id="line2d_12">
      <g>
       <use style="stroke:#000000;stroke-width:0.8;" x="57.6" xlink:href="#m704ef00af5" y="103.142361"/>
      </g>
     </g>
     <g id="text_13">
      <text style="font-family:DejaVu Sans;font-size:10px;font-style:normal;font-weight:normal;text-anchor:end;" transform="rotate(-0, 50.6, 106.941579)" x="50.6" y="106.941579">100</text>
     </g>
    </g>
    <g id="ytick_7">
     <g id="line2d_13">
      <g>
       <use style="stroke:#000000;stroke-width:0.8;" x="57.6" xlink:href="#m704ef00af5" y="63.143683"/>
      </g>
     </g>
     <g id="text_14">
      <text style="font-family:DejaVu Sans;font-size:10px;font-style:normal;font-weight:normal;text-anchor:end;" transform="rotate(-0, 50.6, 66.942902)" x="50.6" y="66.942902">120</text>
     </g>
    </g>
    <g id="text_15">
     <text style="font-family:DejaVu Sans;font-size:10px;font-style:normal;font-weight:normal;text-anchor:middle;" transform="rotate(-90, 25.432813, 174.528)" x="25.432813" y="174.528">Coin Flips Needed</text>
    </g>
   </g>
   <g id="line2d_14">
    <path clip-path="url(#p45e90a4193)" d="M 73.832727 295.133611 
L 87.36 294.880834 
L 100.887273 294.60583 
L 114.414545 294.305532 
L 127.941818 293.976284 
L 141.469091 293.613685 
L 154.996364 293.212399 
L 168.523636 292.765885 
L 182.050909 292.26604 
L 195.578182 291.702702 
L 209.105455 291.062955 
L 222.632727 290.330119 
L 236.16 289.482285 
L 249.687273 288.490077 
L 263.214545 287.313187 
L 276.741818 285.894762 
L 290.269091 284.151941 
L 303.796364 281.959073 
L 317.323636 279.115989 
L 330.850909 275.283154 
L 344.378182 269.83481 
L 357.905455 261.476841 
L 371.432727 247.029386 
L 384.96 216.023708 
L 398.487273 101.786787 
" style="fill:none;stroke:#1f77b4;stroke-linecap:square;stroke-width:1.5;"/>
   </g>
   <g id="line2d_15">
    <path clip-path="url(#p45e90a4193)" d="M 73.832727 260.757149 
L 87.36 260.185167 
L 100.887273 259.181201 
L 114.414545 259.301197 
M 141.469091 261.31713 
L 154.996364 252.669416 
L 168.523636 254.67335 
L 182.050909 256.149301 
L 195.578182 250.045503 
L 209.105455 253.44539 
L 222.632727 244.865674 
L 236.16 248.741546 
L 249.687273 228.66621 
L 263.214545 236.685945 
M 290.269091 219.57851 
L 303.796364 210.326816 
" style="fill:none;stroke:#ff7f0e;stroke-linecap:square;stroke-width:1.5;"/>
   </g>
   <g id="line2d_16">
    <path clip-path="url(#p45e90a4193)" d="M 73.832727 253.537387 
L 87.36 255.305329 
L 100.887273 255.005339 
L 114.414545 247.937572 
L 127.941818 247.39359 
L 141.469091 245.229662 
L 154.996364 248.90954 
L 168.523636 240.117831 
L 182.050909 235.081998 
L 195.578182 230.342154 
L 209.105455 231.758107 
L 222.632727 220.054494 
L 236.16 226.862269 
L 249.687273 213.350716 
L 263.214545 210.470811 
L 276.741818 196.847262 
L 290.269091 176.059949 
" style="fill:none;stroke:#2ca02c;stroke-linecap:square;stroke-width:1.5;"/>
   </g>
   <g id="line2d_17">
    <path clip-path="url(#p45e90a4193)" d="M 73.832727 295.488 
L 87.36 294.232042 
L 100.887273 289.956183 
L 114.414545 290.440167 
L 127.941818 286.248306 
L 141.469091 276.548626 
L 154.996364 275.816651 
L 168.523636 265.093005 
L 182.050909 256.113302 
L 195.578182 244.497686 
L 209.105455 229.342187 
L 222.632727 216.010628 
L 236.16 205.170987 
" style="fill:none;stroke:#d62728;stroke-linecap:square;stroke-width:1.5;"/>
   </g>
   <g id="line2d_18">
    <path clip-path="url(#p45e90a4193)" d="M 73.832727 279.236537 
L 87.36 280.772487 
L 100.887273 280.588493 
L 114.414545 272.228769 
L 127.941818 272.728753 
L 141.469091 271.948778 
L 154.996364 272.132772 
L 168.523636 272.380764 
M 195.578182 261.905111 
L 209.105455 263.241066 
L 222.632727 254.433358 
L 236.16 259.837179 
L 249.687273 242.229761 
M 276.741818 233.242058 
M 303.796364 224.766339 
" style="fill:none;stroke:#9467bd;stroke-linecap:square;stroke-width:1.5;"/>
   </g>
   <g id="line2d_19">
    <path clip-path="url(#p45e90a4193)" d="M 87.36 53.568 
L 100.887273 123.42569 
L 114.414545 151.020777 
L 127.941818 172.396071 
L 141.469091 183.123716 
L 154.996364 191.703432 
L 168.523636 195.07932 
L 182.050909 195.319312 
L 195.578182 201.635104 
L 209.105455 197.739232 
L 222.632727 203.119055 
L 236.16 201.359113 
" style="fill:none;stroke:#8c564b;stroke-linecap:square;stroke-width:1.5;"/>
   </g>
   <g id="patch_3">
    <path d="M 57.6 307.584 
L 57.6 41.472 
" style="fill:none;stroke:#000000;stroke-linecap:square;stroke-linejoin:miter;stroke-width:0.8;"/>
   </g>
   <g id="patch_4">
    <path d="M 414.72 307.584 
L 414.72 41.472 
" style="fill:none;stroke:#000000;stroke-linecap:square;stroke-linejoin:miter;stroke-width:0.8;"/>
   </g>
   <g id="patch_5">
    <path d="M 57.6 307.584 
L 414.72 307.584 
" style="fill:none;stroke:#000000;stroke-linecap:square;stroke-linejoin:miter;stroke-width:0.8;"/>
   </g>
   <g id="patch_6">
    <path d="M 57.6 41.472 
L 414.72 41.472 
" style="fill:none;stroke:#000000;stroke-linecap:square;stroke-linejoin:miter;stroke-width:0.8;"/>
   </g>
   <g id="text_16">
    <text style="font-family:DejaVu Sans;font-size:12px;font-style:normal;font-weight:normal;text-anchor:middle;" transform="rotate(-0, 236.16, 35.472)" x="236.16" y="35.472">Coin Flips for x*4.0</text>
   </g>
   <g id="legend_1">
    <g id="patch_7">
     <path d="M 138.466875 137.54075 
L 407.72 137.54075 
Q 409.72 137.54075 409.72 135.54075 
L 409.72 48.472 
Q 409.72 46.472 407.72 46.472 
L 138.466875 46.472 
Q 136.466875 46.472 136.466875 48.472 
L 136.466875 135.54075 
Q 136.466875 137.54075 138.466875 137.54075 
z
" style="fill:#ffffff;opacity:0.8;stroke:#cccccc;stroke-linejoin:miter;"/>
    </g>
    <g id="line2d_20">
     <path d="M 140.466875 54.570438 
L 160.466875 54.570438 
" style="fill:none;stroke:#1f77b4;stroke-linecap:square;stroke-width:1.5;"/>
    </g>
    <g id="line2d_21"/>
    <g id="text_17">
     <text style="font-family:DejaVu Sans;font-size:10px;font-style:normal;font-weight:normal;text-anchor:start;" transform="rotate(-0, 168.466875, 58.070438)" x="168.466875" y="58.070438">Coin Flip Lower Bound (Mendo)</text>
    </g>
    <g id="line2d_22">
     <path d="M 140.466875 69.248563 
L 160.466875 69.248563 
" style="fill:none;stroke:#ff7f0e;stroke-linecap:square;stroke-width:1.5;"/>
    </g>
    <g id="line2d_23"/>
    <g id="text_18">
     <text style="font-family:DejaVu Sans;font-size:10px;font-style:normal;font-weight:normal;text-anchor:start;" transform="rotate(-0, 168.466875, 72.748563)" x="168.466875" y="72.748563">Avg. Coins Flipped 2014 Lin. x*4.0</text>
    </g>
    <g id="line2d_24">
     <path d="M 140.466875 83.926688 
L 160.466875 83.926688 
" style="fill:none;stroke:#2ca02c;stroke-linecap:square;stroke-width:1.5;"/>
    </g>
    <g id="line2d_25"/>
    <g id="text_19">
     <text style="font-family:DejaVu Sans;font-size:10px;font-style:normal;font-weight:normal;text-anchor:start;" transform="rotate(-0, 168.466875, 87.426688)" x="168.466875" y="87.426688">Avg. Coins Flipped 2016 Lin. x*4.0</text>
    </g>
    <g id="line2d_26">
     <path d="M 140.466875 98.604813 
L 160.466875 98.604813 
" style="fill:none;stroke:#d62728;stroke-linecap:square;stroke-width:1.5;"/>
    </g>
    <g id="line2d_27"/>
    <g id="text_20">
     <text style="font-family:DejaVu Sans;font-size:10px;font-style:normal;font-weight:normal;text-anchor:start;" transform="rotate(-0, 168.466875, 102.104813)" x="168.466875" y="102.104813">Avg. Coins Flipped Low-Mean Lin. x*4.0</text>
    </g>
    <g id="line2d_28">
     <path d="M 140.466875 113.282938 
L 160.466875 113.282938 
" style="fill:none;stroke:#9467bd;stroke-linecap:square;stroke-width:1.5;"/>
    </g>
    <g id="line2d_29"/>
    <g id="text_21">
     <text style="font-family:DejaVu Sans;font-size:10px;font-style:normal;font-weight:normal;text-anchor:start;" transform="rotate(-0, 168.466875, 116.782938)" x="168.466875" y="116.782938">Avg. Coins Flipped 2019x*4.0</text>
    </g>
    <g id="line2d_30">
     <path d="M 140.466875 127.961063 
L 160.466875 127.961063 
" style="fill:none;stroke:#8c564b;stroke-linecap:square;stroke-width:1.5;"/>
    </g>
    <g id="line2d_31"/>
    <g id="text_22">
     <text style="font-family:DejaVu Sans;font-size:10px;font-style:normal;font-weight:normal;text-anchor:start;" transform="rotate(-0, 168.466875, 131.461063)" x="168.466875" y="131.461063">Avg. Coins Flipped Low-Mean M=0.49999 x*4.0</text>
    </g>
   </g>
  </g>
 </g>
 <defs>
  <clipPath id="p45e90a4193">
   <rect height="266.112" width="357.12" x="57.6" y="41.472"/>
  </clipPath>
 </defs>
</svg>

<svg height="460.8" viewBox="0 0 460.8 345.6" width="614.4" xmlns="http://www.w3.org/2000/svg" xmlns:xlink="http://www.w3.org/1999/xlink"><defs><style>*{stroke-linecap:butt;stroke-linejoin:round}</style></defs><g id="figure_1"><path d="M0 345.6h460.8V0H0z" fill="#fff" id="patch_1"/><g id="axes_1"><path d="M57.6 307.584h357.12V41.472H57.6z" fill="#fff" id="patch_2"/><g id="matplotlib.axis_1"><g id="xtick_1"><g id="line2d_1"><defs><path d="M0 0v3.5" id="m1662c79aaa" stroke="#000" stroke-width=".8"/></defs><use x="73.699" xlink:href="#m1662c79aaa" y="307.584" stroke="#000" stroke-width=".8"/></g><text x="73.699" y="322.182" font-family="DejaVu Sans" font-size="10" font-weight="400" text-anchor="middle" id="text_1">0.00</text></g><g id="xtick_2"><use x="140.672" xlink:href="#m1662c79aaa" y="307.584" stroke="#000" stroke-width=".8" id="line2d_2"/><text x="140.672" y="322.182" font-family="DejaVu Sans" font-size="10" font-weight="400" text-anchor="middle" id="text_2">0.05</text></g><g id="xtick_3"><use x="207.646" xlink:href="#m1662c79aaa" y="307.584" stroke="#000" stroke-width=".8" id="line2d_3"/><text x="207.646" y="322.182" font-family="DejaVu Sans" font-size="10" font-weight="400" text-anchor="middle" id="text_3">0.10</text></g><g id="xtick_4"><use x="274.619" xlink:href="#m1662c79aaa" y="307.584" stroke="#000" stroke-width=".8" id="line2d_4"/><text x="274.619" y="322.182" font-family="DejaVu Sans" font-size="10" font-weight="400" text-anchor="middle" id="text_4">0.15</text></g><g id="xtick_5"><use x="341.592" xlink:href="#m1662c79aaa" y="307.584" stroke="#000" stroke-width=".8" id="line2d_5"/><text x="341.592" y="322.182" font-family="DejaVu Sans" font-size="10" font-weight="400" text-anchor="middle" id="text_5">0.20</text></g><g id="xtick_6"><use x="408.566" xlink:href="#m1662c79aaa" y="307.584" stroke="#000" stroke-width=".8" id="line2d_6"/><text x="408.566" y="322.182" font-family="DejaVu Sans" font-size="10" font-weight="400" text-anchor="middle" id="text_6">0.25</text></g><text x="236.16" y="335.861" font-family="DejaVu Sans" font-size="10" font-weight="400" text-anchor="middle" id="text_7">Input Coin&apos;s Heads Probability (λ)</text></g><g id="matplotlib.axis_2"><g id="ytick_1"><g id="line2d_7"><defs><path d="M0 0h-3.5" id="m704ef00af5" stroke="#000" stroke-width=".8"/></defs><use x="57.6" xlink:href="#m704ef00af5" y="303.136" stroke="#000" stroke-width=".8"/></g><text x="50.6" y="306.935" font-family="DejaVu Sans" font-size="10" font-weight="400" text-anchor="end" id="text_8">0</text></g><g id="ytick_2"><use x="57.6" xlink:href="#m704ef00af5" y="263.137" stroke="#000" stroke-width=".8" id="line2d_8"/><text x="50.6" y="266.936" font-family="DejaVu Sans" font-size="10" font-weight="400" text-anchor="end" id="text_9">20</text></g><g id="ytick_3"><use x="57.6" xlink:href="#m704ef00af5" y="223.138" stroke="#000" stroke-width=".8" id="line2d_9"/><text x="50.6" y="226.938" font-family="DejaVu Sans" font-size="10" font-weight="400" text-anchor="end" id="text_10">40</text></g><g id="ytick_4"><use x="57.6" xlink:href="#m704ef00af5" y="183.14" stroke="#000" stroke-width=".8" id="line2d_10"/><text x="50.6" y="186.939" font-family="DejaVu Sans" font-size="10" font-weight="400" text-anchor="end" id="text_11">60</text></g><g id="ytick_5"><use x="57.6" xlink:href="#m704ef00af5" y="143.141" stroke="#000" stroke-width=".8" id="line2d_11"/><text x="50.6" y="146.94" font-family="DejaVu Sans" font-size="10" font-weight="400" text-anchor="end" id="text_12">80</text></g><g id="ytick_6"><use x="57.6" xlink:href="#m704ef00af5" y="103.142" stroke="#000" stroke-width=".8" id="line2d_12"/><text x="50.6" y="106.942" font-family="DejaVu Sans" font-size="10" font-weight="400" text-anchor="end" id="text_13">100</text></g><g id="ytick_7"><use x="57.6" xlink:href="#m704ef00af5" y="63.144" stroke="#000" stroke-width=".8" id="line2d_13"/><text x="50.6" y="66.943" font-family="DejaVu Sans" font-size="10" font-weight="400" text-anchor="end" id="text_14">120</text></g><text transform="rotate(-90 25.433 174.528)" x="25.433" y="174.528" font-family="DejaVu Sans" font-size="10" font-weight="400" text-anchor="middle" id="text_15">Coin Flips Needed</text></g><path clip-path="url(#p45e90a4193)" d="M73.833 295.134l13.527-.253 13.527-.275 13.528-.3 13.527-.33 13.527-.362 13.527-.402 13.528-.446 13.527-.5 13.527-.563 13.527-.64 13.528-.733 13.527-.848 13.527-.992 13.528-1.177 13.527-1.418 13.527-1.743 13.527-2.193 13.528-2.843 13.527-3.833 13.527-5.448 13.527-8.358 13.528-14.448 13.527-31.005 13.527-114.237" fill="none" stroke="#1f77b4" stroke-linecap="square" stroke-width="1.5" id="line2d_14"/><path clip-path="url(#p45e90a4193)" d="M73.833 260.757l13.527-.572 13.527-1.004 13.528.12m27.054 2.016l13.527-8.648 13.528 2.004 13.527 1.476 13.527-6.103 13.527 3.4 13.528-8.58 13.527 3.876 13.527-20.076 13.528 8.02m27.054-17.107l13.527-9.252" fill="none" stroke="#ff7f0e" stroke-linecap="square" stroke-width="1.5" id="line2d_15"/><path clip-path="url(#p45e90a4193)" d="M73.833 253.537l13.527 1.768 13.527-.3 13.528-7.067 13.527-.544 13.527-2.164 13.527 3.68 13.528-8.792 13.527-5.036 13.527-4.74 13.527 1.416 13.528-11.704 13.527 6.808 13.527-13.511 13.528-2.88 13.527-13.624 13.527-20.787" fill="none" stroke="#2ca02c" stroke-linecap="square" stroke-width="1.5" id="line2d_16"/><path clip-path="url(#p45e90a4193)" d="M73.833 295.488l13.527-1.256 13.527-4.276 13.528.484 13.527-4.192 13.527-9.7 13.527-.731 13.528-10.724 13.527-8.98 13.527-11.615 13.527-15.156 13.528-13.331 13.527-10.84" fill="none" stroke="#d62728" stroke-linecap="square" stroke-width="1.5" id="line2d_17"/><path clip-path="url(#p45e90a4193)" d="M73.833 279.237l13.527 1.535 13.527-.184 13.528-8.36 13.527.5 13.527-.78 13.527.185 13.528.248m27.054-10.476l13.527 1.336 13.528-8.808 13.527 5.404 13.527-17.607M303.796 224.766" fill="none" stroke="#9467bd" stroke-linecap="square" stroke-width="1.5" id="line2d_18"/><path clip-path="url(#p45e90a4193)" d="M87.36 53.568l13.527 69.858 13.528 27.595 13.527 21.375 13.527 10.728 13.527 8.58 13.528 3.375 13.527.24 13.527 6.316 13.527-3.896 13.528 5.38 13.527-1.76" fill="none" stroke="#8c564b" stroke-linecap="square" stroke-width="1.5" id="line2d_19"/><path d="M57.6 307.584V41.472" fill="none" stroke="#000" stroke-linecap="square" stroke-width=".8" id="patch_3"/><path d="M414.72 307.584V41.472" fill="none" stroke="#000" stroke-linecap="square" stroke-width=".8" id="patch_4"/><path d="M57.6 307.584h357.12" fill="none" stroke="#000" stroke-linecap="square" stroke-width=".8" id="patch_5"/><path d="M57.6 41.472h357.12" fill="none" stroke="#000" stroke-linecap="square" stroke-width=".8" id="patch_6"/><text x="236.16" y="35.472" font-family="DejaVu Sans" font-size="12" font-weight="400" text-anchor="middle" id="text_16">Coin Flips for x*4.0</text><g id="legend_1"><path d="M138.467 137.54H407.72q2 0 2-2V48.473q0-2-2-2H138.467q-2 0-2 2v87.069q0 2 2 2z" fill="#fff" opacity=".8" stroke="#ccc" id="patch_7"/><path d="M140.467 54.57h20" fill="none" stroke="#1f77b4" stroke-linecap="square" stroke-width="1.5" id="line2d_20"/><text x="168.467" y="58.07" font-family="DejaVu Sans" font-size="10" font-weight="400" id="text_17">Coin Flip Lower Bound (Mendo)</text><path d="M140.467 69.249h20" fill="none" stroke="#ff7f0e" stroke-linecap="square" stroke-width="1.5" id="line2d_22"/><text x="168.467" y="72.749" font-family="DejaVu Sans" font-size="10" font-weight="400" id="text_18">Avg. Coins Flipped 2014 Lin. x*4.0</text><path d="M140.467 83.927h20" fill="none" stroke="#2ca02c" stroke-linecap="square" stroke-width="1.5" id="line2d_24"/><text x="168.467" y="87.427" font-family="DejaVu Sans" font-size="10" font-weight="400" id="text_19">Avg. Coins Flipped 2016 Lin. x*4.0</text><path d="M140.467 98.605h20" fill="none" stroke="#d62728" stroke-linecap="square" stroke-width="1.5" id="line2d_26"/><text x="168.467" y="102.105" font-family="DejaVu Sans" font-size="10" font-weight="400" id="text_20">Avg. Coins Flipped Low-Mean Lin. x*4.0</text><path d="M140.467 113.283h20" fill="none" stroke="#9467bd" stroke-linecap="square" stroke-width="1.5" id="line2d_28"/><text x="168.467" y="116.783" font-family="DejaVu Sans" font-size="10" font-weight="400" id="text_21">Avg. Coins Flipped 2019x*4.0</text><path d="M140.467 127.961h20" fill="none" stroke="#8c564b" stroke-linecap="square" stroke-width="1.5" id="line2d_30"/><text x="168.467" y="131.461" font-family="DejaVu Sans" font-size="10" font-weight="400" id="text_22">Avg. Coins Flipped Low-Mean M=0.49999 x*4.0</text></g></g></g><defs><clipPath id="p45e90a4193"><path d="M57.6 41.472h357.12v266.112H57.6z"/></clipPath></defs></svg>
